.local/share/icons/Gruvbox-Plus-Dark/actions/24/mail-open-multiple.svg

<svg width="24" height="24" version="1.1" xmlns="http://www.w3.org/2000/svg">
  <defs>
    <style id="current-color-scheme" type="text/css">.ColorScheme-Text { color:#ebdbb2; } .ColorScheme-Highlight { color:#458588; }</style>
  </defs>
  <path class="ColorScheme-Text" d="m7 5v2h10v-2zm-1 2c-1.108 0-2 0.892-2 2v8c0 1.108 0.892 2 2 2h6v-5l-6-3zm12 0v4l-2 1h3c0.364 0 0.7035 0.1077 1 0.2832v-3.283c0-1.108-0.892-2-2-2zm-11 2v2h10v-2zm7 4c-0.554 0-1 0.446-1 1v5c0 0.554 0.446 1 1 1h5c0.554 0 1-0.446 1-1v-5c0-0.554-0.446-1-1-1zm0 1h1l1.377 1.586 1.623-1.586h1v5h-1v-3.613l-1.682 1.613c-0.4395-0.4775-0.8786-0.9918-1.318-1.496v3.496h-1z" fill="currentColor"/>
</svg>

<svg xmlns="http://www.w3.org/2000/svg" width="24" height="24" version="1.1" viewBox="0 0 24 24">
 <defs>
  <style id="current-color-scheme" type="text/css">
   .ColorScheme-Text { color:#ebdbb2; } .ColorScheme-Highlight { color:#458588; }
  </style>
 </defs>
 <path style="fill:currentColor" class="ColorScheme-Text" d="M 7,5 7,7 17,7 17,5 7,5 Z M 6,7 C 4.892,7 4,7.892 4,9 l 0,8 c 0,1.108 0.892,2 2,2 l 6,0 0,-5 -6,-3 0,-4 z m 12,0 0,4 -2,1 3,0 c 0.363969,0 0.703481,0.107739 1,0.283203 L 20,9 C 20,7.892 19.108,7 18,7 Z M 7,9 7,11 17,11 17,9 7,9 Z m 7,4 c -0.554,0 -1,0.446 -1,1 l 0,5 c 0,0.554 0.446,1 1,1 l 5,0 c 0.554,0 1,-0.446 1,-1 l 0,-5 c 0,-0.554 -0.446,-1 -1,-1 l -5,0 z m 0,1 1,0 0,1 1,0 0,1 1,0 0,-1 1,0 0,-1 1,0 0,5 -1,0 0,-3 -1,0 0,1 -1,0 0,-1 -1,0 0,3 -1,0 0,-5 z"/>
</svg>
